img/movies-theme.svg

<svg xmlns="http://www.w3.org/2000/svg" width="171" height="133"><path fill-rule="evenodd" fill="#F5EEE3" d="M164.872 115.336c-1.028 4.333-4.647 7.565-9.062 8.1-11.17 1.355-22.418 2.353-33.666 3.06.607.384.997.779.997 1.184 0 2.941-16.665 5.32-37.224 5.32-20.559 0-37.224-2.379-37.224-5.32 0-.405.39-.8.997-1.184-11.248-.707-22.496-1.705-33.667-3.06-4.414-.535-8.033-3.767-9.061-8.1-8.133-34.169-8.133-68.822 0-102.992 1.028-4.333 4.647-7.564 9.061-8.099C39.21 1.429 62.725.001 85.917.001c23.192 0 46.706 1.428 69.893 4.244 4.415.535 8.034 3.766 9.062 8.099 8.133 34.17 8.133 68.823 0 102.992zM154.528 14.807c-45.741-5.554-91.481-5.554-137.222 0-7.779 32.688-7.779 65.378 0 98.066 45.741 5.555 91.481 5.555 137.222 0 7.779-32.688 7.779-65.378 0-98.066zm-2.14 70.313h-15.953c-1.47 0-2.659-1.189-2.659-2.66 0-1.47 1.189-2.66 2.659-2.66h15.953c1.47 0 2.659 1.19 2.659 2.66 0 1.471-1.189 2.66-2.659 2.66zm0-15.96h-15.953c-1.47 0-2.659-1.19-2.659-2.66 0-1.47 1.189-2.66 2.659-2.66h15.953c1.47 0 2.659 1.19 2.659 2.66 0 1.47-1.189 2.66-2.659 2.66zm-10.636-26.6c-4.403 0-7.976-3.574-7.976-7.98 0-4.406 3.573-7.98 7.976-7.98 4.405 0 7.977 3.574 7.977 7.98 0 4.406-3.572 7.98-7.977 7.98zm0-10.64c-1.463 0-2.658 1.195-2.658 2.66s1.195 2.66 2.658 2.66c1.465 0 2.659-1.195 2.659-2.66s-1.194-2.66-2.659-2.66zm7.977 66.501c0 1.47-1.189 2.659-2.659 2.659h-15.953c-1.469 0-2.659-1.189-2.659-2.659 0-1.471 1.19-2.661 2.659-2.661h15.953c1.47 0 2.659 1.19 2.659 2.661zm-31.028 3.516c-14.4 2.962-29.009 4.463-43.42 4.463-14.41 0-29.018-1.501-43.419-4.463-1.864-.384-3.385-1.735-3.983-3.548-7.67-23.306-7.67-46.934 0-70.241.598-1.813 2.119-3.164 3.983-3.548 14.401-2.961 29.009-4.463 43.419-4.463 14.411 0 29.02 1.502 43.42 4.463 1.864.384 3.386 1.735 3.983 3.548 7.67 23.307 7.67 46.935 0 70.241-.597 1.813-2.119 3.164-3.983 3.548zm-1.07-72.126c-28.23-5.803-56.469-5.803-84.699 0-7.343 22.309-7.343 44.607 0 66.916 28.23 5.803 56.469 5.803 84.699 0 7.343-22.309 7.343-44.607 0-66.916zm-45.008 17.02l-19.936 1.366c-1.454.151-2.804 1.455-3.002 2.904l-.888 10.08c-.057 1.464-1.299 2.659-2.752 2.659-1.459 0-2.591-1.195-2.519-2.655l1.625-14.822c.244-1.444 1.631-2.764 3.085-2.93l24.387-1.912c1.464-.057 2.658 1.092 2.658 2.556 0 1.466-1.194 2.702-2.658 2.754z"/></svg>

﻿<svg 
 xmlns="http://www.w3.org/2000/svg"
 xmlns:xlink="http://www.w3.org/1999/xlink"
 width="171px" height="133px">
<path fill-rule="evenodd"  fill="rgb(245, 238, 227)"
 d="M164.872,115.336 C163.844,119.669 160.225,122.901 155.810,123.436 C144.640,124.791 133.392,125.789 122.144,126.496 C122.751,126.880 123.141,127.275 123.141,127.680 C123.141,130.621 106.476,133.000 85.917,133.000 C65.358,133.000 48.693,130.621 48.693,127.680 C48.693,127.275 49.083,126.880 49.690,126.496 C38.442,125.789 27.194,124.791 16.023,123.436 C11.609,122.901 7.990,119.669 6.962,115.336 C-1.171,81.167 -1.171,46.514 6.962,12.344 C7.990,8.011 11.609,4.780 16.023,4.245 C39.210,1.429 62.725,0.001 85.917,0.001 C109.109,0.001 132.623,1.429 155.810,4.245 C160.225,4.780 163.844,8.011 164.872,12.344 C173.005,46.514 173.005,81.167 164.872,115.336 ZM154.528,14.807 C108.787,9.253 63.047,9.253 17.306,14.807 C9.527,47.495 9.527,80.185 17.306,112.873 C63.047,118.428 108.787,118.428 154.528,112.873 C162.307,80.185 162.307,47.495 154.528,14.807 ZM152.388,85.120 L136.435,85.120 C134.965,85.120 133.776,83.931 133.776,82.460 C133.776,80.990 134.965,79.800 136.435,79.800 L152.388,79.800 C153.858,79.800 155.047,80.990 155.047,82.460 C155.047,83.931 153.858,85.120 152.388,85.120 ZM152.388,69.160 L136.435,69.160 C134.965,69.160 133.776,67.970 133.776,66.500 C133.776,65.030 134.965,63.840 136.435,63.840 L152.388,63.840 C153.858,63.840 155.047,65.030 155.047,66.500 C155.047,67.970 153.858,69.160 152.388,69.160 ZM141.752,42.560 C137.349,42.560 133.776,38.986 133.776,34.580 C133.776,30.174 137.349,26.600 141.752,26.600 C146.157,26.600 149.729,30.174 149.729,34.580 C149.729,38.986 146.157,42.560 141.752,42.560 ZM141.752,31.920 C140.289,31.920 139.094,33.115 139.094,34.580 C139.094,36.045 140.289,37.240 141.752,37.240 C143.217,37.240 144.411,36.045 144.411,34.580 C144.411,33.115 143.217,31.920 141.752,31.920 ZM149.729,98.421 C149.729,99.891 148.540,101.080 147.070,101.080 L131.117,101.080 C129.648,101.080 128.458,99.891 128.458,98.421 C128.458,96.950 129.648,95.760 131.117,95.760 L147.070,95.760 C148.540,95.760 149.729,96.950 149.729,98.421 ZM118.701,101.937 C104.301,104.899 89.692,106.400 75.281,106.400 C60.871,106.400 46.263,104.899 31.862,101.937 C29.998,101.553 28.477,100.202 27.879,98.389 C20.209,75.083 20.209,51.455 27.879,28.148 C28.477,26.335 29.998,24.984 31.862,24.600 C46.263,21.639 60.871,20.137 75.281,20.137 C89.692,20.137 104.301,21.639 118.701,24.600 C120.565,24.984 122.087,26.335 122.684,28.148 C130.354,51.455 130.354,75.083 122.684,98.389 C122.087,100.202 120.565,101.553 118.701,101.937 ZM117.631,29.811 C89.401,24.008 61.162,24.008 32.932,29.811 C25.589,52.120 25.589,74.418 32.932,96.727 C61.162,102.530 89.401,102.530 117.631,96.727 C124.974,74.418 124.974,52.120 117.631,29.811 ZM72.623,46.831 L52.687,48.197 C51.233,48.348 49.883,49.652 49.685,51.101 L48.797,61.181 C48.740,62.645 47.498,63.840 46.045,63.840 C44.586,63.840 43.454,62.645 43.526,61.185 L45.151,46.363 C45.395,44.919 46.782,43.599 48.236,43.433 L72.623,41.521 C74.087,41.464 75.281,42.613 75.281,44.077 C75.281,45.543 74.087,46.779 72.623,46.831 Z"/>
</svg>
